X:104
T:Flirtation, The
M:6/8
L:1/8
B:Thompson's Compleat Collection of 200 Favourite Country Dances, vol. 2 (London, 1765)
Z:Transcribed and edited by Flynn Titford-Mock, 2007
Z:abc's:AK/Fiddler's Companion
K:A
E | ABA GFE | BcB (BB)c/d/ | ecA Aec | "tr"c3 B2 :: c/d/ | edc edc |
Agf ecA | BGE BGE | d3 c2 c/d/ | ecA Aec | "tr"B3 A2 :|

